packages/ffe-icons/icons/open/400/sm/picture_in_picture_large.svg

<svg xmlns="http://www.w3.org/2000/svg" height="20" viewBox="0 -960 960 960" width="20"><path d="M324.289-336Q309-336 298.5-346.341 288-356.682 288-371.968v-287.746Q288-675 298.342-685.5q10.343-10.5 25.632-10.5h359.737Q699-696 709.5-685.659q10.5 10.341 10.5 25.627v287.746Q720-357 709.658-346.5 699.315-336 684.026-336H324.289ZM132-192q-15.3 0-25.65-10.289Q96-212.579 96-227.789 96-243 106.35-253.5 116.7-264 132-264h660v-467.709Q792-747 802.289-757.5q10.29-10.5 25.5-10.5Q843-768 853.5-757.644 864-747.288 864-731.98v468.263Q864-234 842.85-213T792-192H132Z"/></svg>

<svg xmlns="http://www.w3.org/2000/svg" height="20" viewBox="0 -960 960 960" width="20"><path d="M324.29-336q-15.29 0-25.79-10.34T288-371.97v-287.74q0-15.29 10.34-25.79t25.63-10.5h359.74q15.29 0 25.79 10.34t10.5 25.63v287.74q0 15.29-10.34 25.79T684.03-336H324.29ZM132-192q-15.3 0-25.65-10.29Q96-212.58 96-227.79t10.35-25.71Q116.7-264 132-264h660v-467.71q0-15.29 10.29-25.79t25.5-10.5q15.21 0 25.71 10.36 10.5 10.35 10.5 25.66v468.26Q864-234 842.85-213T792-192H132Z"/></svg>
